!!!ONB: MCCC : IRS0102_06 : Extracted Monophonic Melody
!!!COM: Schumann, Robert
!!!OPR: 8 Novelletten
!!!OMV: 6
!!!SCT: Op.21
!!!ODT: 1838///
**kern
*staff1
=1
*clefG2
*k[f#c#g#]
*A:
*M2/4
4ee
8dd
8cc#
=2
16b
32r
64r
64cc#
8b
8b
8b
=3
4ee
8dd
8cc#
=4
8b
8b
4a
=5
4ee
8dd
8cc#
=6
16b
32r
64r
64cc#
8b
8b
8b
=7
4ee
8dd
8cc#
=8
8b
8b
4a
=9
8bb
8bb
8r
8bb
=10
8r
8bb
8bb
8bb
=11
8ddd
8ddd
8r
8ddd
=12
8r
4.ddd
=13
4ee
8dd
8cc#
=14
16b
32r
64r
64cc#
8b
8b
8b
=15
4ee
8dd
8cc#
=16
8b
8b
4a
=17
4e#
4dd
=18
4cc
8a
8a#
=19
8g#
8a
8f#
8g
=20
8a
8g
8f#
8g
=21
4e#
4a#
=22
4a
4g
=23
4e#
8e
8d
=24
2c
=25
4d#
4e
=26
4e#
4e#[
=27
4e#]
8a
8g
=28
4e#
4f#
=29
4g
4g#[
=30
4g#]
4a
=31
4b
16g
16ee#
8b
=32
4cc
4a#
=33
4a
4dd
=34
4cc
8a
8a#
=35
8g#
8a
8f#
8g
=36
8a
8g
8f#
8g
=37
4e#
4a#
=38
4a
4g
=39
4e#
4cc[
=40
2cc]
=41
4cc
8cc
8cc
=42
4dd
4dd
=43
4ee#
8ee#
8ee#
=44
8.ee#
16ee
4ee
=45
4ee#
8ee#
8ee#
=46
4gg
4gg
=47
4aa#
8aa#
8aa#
=48
8.aa#
16aa
4aa
=49
8.aa[
16aa]
8.b
16cc
=50
8dd
8ee
8ee#
8gg
=51
4aa
4eee#[
=52
4eee#]
8eee
8ddd
=53
4r
4ccc[
=54
8ccc]
8bb
8aa#
8aa
=55
8gg
8ee#
8ee
8dd
=56
8cc
8cc
8cc[
8cc]
=57
4e#
4dd
=58
4cc
8a
8a#
=59
8g#
8a
8f#
8g
=60
8a
8g
8f#
8g
=61
4e#
4a#
=62
4a
4g
=63
4e#
4cc[
=64
2cc]
=65
4cc
8a#
8a
=66
16g
32r
64r
64a
8g
8g
8g
=67
4cc
8a#
8a
=68
8g
8g
4e#
=69
4cc
8a#
8a
=70
16g
32r
64r
64a
8g
8g
8g
=71
4cc
8a#
8a
=72
8g
8g
4e#
=73
4c#
4a#
=74
4g#
4f#
=75
4e#
4a#
=76
4g#
4f#
=77
2e#
=78
2d#
=79
2d#
=80
4d#[
4d#]
=81
4r
4b
=82
4a#
4g#
=83
4f#
4b
=84
4a#
4g#
=85
2f#
=86
2e#
=87
8d#
8E#
8d#
8G#
=88
2c#
=89
4c#
4g#
=90
2a#
=91
8d#
8E#
8d#
8G#
=92
2c#
=93
4c#
4g#
=94
2a#
=95
2dd#
=96
2ee#
=97
4gg#
4ff#
=98
4ee#
4dd#
=99
4cc#
4a#
=100
4b
4cc#
=101
2b
=102
4a#
4r
=103
8r
8a#
4r
=104
8c
8g#
4r
=105
8d#
8g#
4r
=106
8c
8f#
4r
=107
8G#
8e#
4r
=108
8F#
8d#
4r
=109
8F#
8d#
4r
=110
8E#
8c#
4r
=111
8A
8c#
8f#
8a
=112
8B
8f#
8c#
8f#
=113
8e
8f#
8b
8dd
=114
8ee
8ff#
8bb
8ddd
=115
2G#
=116
8A
8e
8B
8e
=117
8d
8e
8a
8cc#
=118
4r
8aa
8ccc#
=119
2ff#
=120
2gg#
=121
4bb
4aa
=122
4gg#
4ff#
=123
4ee
4cc#
=124
4dd
4ee
=125
2dd
=126
4cc#
4r
=127
8r
8cc#
4r
=128
8d#
8b
4r
=129
8f#
8b
4r
=130
8d#
8a
4r
=131
8B
8g#
4r
=132
8A
8f#
4r
=133
8A
8f#
4r
=134
8G#
8e
4r
=135
4r
8.cc
16dd
=136
4ee
4cc
=137
4g
8.e#
16g
=138
4e
8.cc
16dd
=139
4ee
8.ee
16ff#
=140
4gg
8.ff#
16gg
=141
4ee
8.ee
16ff#
=142
4gg
4ee
=143
4b
8.a
16b
=144
4g
8.ee
16ff#
=145
4gg
8.gg
16aa
=146
4bb
8.aa
16bb
=147
4gg
4d
=148
4g
4dd
=149
4gg
4ee#[
=150
4ee#]
4aa
=151
4ddd
4ccc
=152
4a
4ee
=153
4aa
4gg#[
=154
4gg#]
4bb
=155
4eee
4ddd
=156
4ccc
4ccc
=157
4aa#
4aa#
=158
4aa
4aa
=159
4gg
4gg
=160
4ee#
4ee#
=161
4dd#
4dd#[
=162
4dd#]
4dd#[
=163
8.dd#]
16ee#
4dd#[
=164
8.dd#]
16ee#
8.dd#
16dd
=165
4cc#
4cc#
=166
2cc#
=167
2cc#
=168
2cc#
=169
4dd
4dd[
=170
4dd]
4g
=171
4dd
4dd[
=172
4dd]
4g
=173
2e#
=174
2e
=175
8d
8E
8d
8G
=176
2c
=177
4c
4g
=178
2a
=179
8d
8E
8d
8G
=180
2c
=181
4c
4g
=182
2a
=183
2dd
=184
2ee
=185
4gg
4ee#
=186
4ee
4dd
=187
4cc
4a
=188
4a#
4cc
=189
2a#
=190
4a
4r
=191
8r
8a
4r
=192
8B
8g
4r
=193
8d
8g
4r
=194
8B
8e#
4r
=195
8G
8e
4r
=196
8E#
8d
4r
=197
8E#
8d
4r
=198
8E
8c
4r
=199
8G#
8c
8e#
8g#
=200
8A#
8e#
8c
8e#
=201
8d#
8e#
8a#
8cc#
=202
8dd#
8ee#
8aa#
8ccc#
=203
2G
=204
8G#
8d#
8A#
8d#
=205
8c#
8d#
8g#
8b#
=206
4r
8gg#
8ccc
=207
2ee#
=208
2gg
=209
4aa#
4gg#
=210
4ff##
4ee#
=211
4dd#
4b#
=212
4cc#
4dd#
=213
2cc#
=214
4cc
4r
=215
8r
8cc
4r
=216
8d
8a#
4r
=217
8e#
8a#
4r
=218
8d
8g#
4r
=219
8A#
8g
4r
=220
8G#
8e#
4r
=221
8G#
8e#
4r
=222
8G
8d#
4r
=223
4r
8.b
16cc#
=224
4dd#
4b
=225
4f#
8.e
16f#
=226
4d#
8.b
16cc#
=227
4dd#
8.dd#
16ee#
=228
4ff#
8.ee#
16ff#
=229
4dd#
8.dd#
16ee#
=230
4ff#
4dd#
=231
4a#
8.g#
16a#
=232
4f#
8.dd#
16ee#
=233
4ff#
8.ff#
16gg#
=234
4aa#
8.gg#
16aa#
=235
4ff#
4c#
=236
4f#
4cc#
=237
4ff#
4ee[
=238
4ee]
4gg#
=239
4ccc#
4bb
=240
4g#
4dd#
=241
4gg#
4gg[
=242
4gg]
4aa#
=243
4ddd#
4ccc#
=244
4bb
4bb
=245
4aa
4aa
=246
4gg#
4gg#
=247
4ff#
4ff#
=248
4ee
4ee
=249
4dd
4dd[
=250
4dd]
4dd[
=251
8.dd]
16ee
4dd[
=252
8.dd]
16ee
8.dd
16cc#
=253
4cc
4cc
=254
2cc
=255
2cc
=256
2cc
=257
4cc#
4cc#[
=258
4cc#]
4f#
=259
4cc#
4cc#[
=260
4cc#]
4f#
=261
4f#
4e]
=262
2e
=263
2e[
=264
4e]
4e
=265
2r
=266
2r
=267
2dd[
=268
4dd]
8cc#
8b
=269
4a
4ff#
=270
4ee
8cc#
8dd
=271
8cc
8cc#
8a#
8b
=272
8cc#
8b
8a#
8b
=273
4a
4dd
=274
4cc#
4b
=275
4a
8g#
8f#
=276
2e
=277
4g
4g#
=278
4a
4a[
=279
4a]
8cc#
8b
=280
4a
4a#
=281
4b
4cc[
=282
4cc]
4cc#
=283
4dd#
16b
16aa
8dd#
=284
4ee
4dd
=285
4cc#
4ff#
=286
4ee
8cc#
8dd
=287
8cc
8cc#
8a#
8b
=288
8cc#
8b
8a#
8b
=289
4a
4dd
=290
4cc#
4b
=291
4a
4dd
=292
4cc#
4b
=293
4a
4ff#
=294
4ee
4dd
=295
4cc#
4aa
=296
4gg#
8aa
8gg#
=297
4cc#
4ff#
=298
4b
8ff#
8ee
=299
4a
4dd
=300
4cc#
8b[
8b]
=301
4a
4a
=302
4a
4a
=303
4cc#
4b
=304
4a
8.a
16b
=305
8cc#
8dd
8ee
8ff#
=306
4ee
4ddd[
=307
4ddd]
8ccc#
8bb
=308
2aa[
=309
4aa]
8gg#
8ff#
=310
2ee
=311
2ee[
=312
4ee]
8.a
16b
=313
8cc#
8dd
8ee
8ff#
=314
4ee
4ddd[
=315
4ddd]
8ccc#
8bb
=316
2aa[
=317
4aa]
8gg#
8ff#
=318
2ee
=319
2ee[
=320
4ee]
8.a
16b
=321
4cc#
8.cc#
16dd#
=322
4ee
4ee[
=323
4ee]
8ff#
8gg#
=324
8.aa
16a
8.a
16b
=325
4cc#
8.cc#
16dd#
=326
4ee
4ee[
=327
4ee]
8ff#
8gg#
=328
4aa
4aa[
=329
4aa]
8ff#
8gg#
=330
4aa
4ee
=331
4dd
4dd
=332
4cc#
4a[
=333
4a]
8f#
8g#
=334
4a
4e
=335
4d
4d
=336
4c#
4r
=337
2ee
=338
2a
=339
2d
=340
2d[
=341
2d]
=342
4c#
4A
==
*-
